optimized/20/solid/pencil-square.svg

<svg xmlns="http://www.w3.org/2000/svg" viewBox="0 0 20 20">
  <path d="M5.43306 13.9168L6.69485 10.7623C6.89603 10.2593 7.19728 9.80249 7.58033 9.41945L14.4995 2.50071C15.3279 1.67229 16.6711 1.67229 17.4995 2.50072C18.3279 3.32914 18.3279 4.67229 17.4995 5.50072L10.5803 12.4194C10.1973 12.8025 9.74042 13.1037 9.23746 13.3049L6.08299 14.5667C5.67484 14.73 5.2698 14.3249 5.43306 13.9168Z"/>
  <path d="M3.5 5.75C3.5 5.05964 4.05964 4.5 4.75 4.5H10C10.4142 4.5 10.75 4.16421 10.75 3.75C10.75 3.33579 10.4142 3 10 3H4.75C3.23122 3 2 4.23122 2 5.75V15.25C2 16.7688 3.23122 18 4.75 18H14.25C15.7688 18 17 16.7688 17 15.25V10C17 9.58579 16.6642 9.25 16.25 9.25C15.8358 9.25 15.5 9.58579 15.5 10V15.25C15.5 15.9404 14.9404 16.5 14.25 16.5H4.75C4.05964 16.5 3.5 15.9404 3.5 15.25V5.75Z"/>
</svg>

<svg xmlns="http://www.w3.org/2000/svg" viewBox="0 0 20 20" fill="currentColor" aria-hidden="true">
  <path d="M5.433 13.917l1.262-3.155A4 4 0 017.58 9.42l6.92-6.918a2.121 2.121 0 013 3l-6.92 6.918c-.383.383-.84.685-1.343.886l-3.154 1.262a.5.5 0 01-.65-.65z"/>
  <path d="M3.5 5.75c0-.69.56-1.25 1.25-1.25H10A.75.75 0 0010 3H4.75A2.75 2.75 0 002 5.75v9.5A2.75 2.75 0 004.75 18h9.5A2.75 2.75 0 0017 15.25V10a.75.75 0 00-1.5 0v5.25c0 .69-.56 1.25-1.25 1.25h-9.5c-.69 0-1.25-.56-1.25-1.25v-9.5z"/>
</svg>
